static/site/images/special-projects/autoclave/svg/6-stroke.svg

<svg width="68" height="73" viewBox="0 0 68 73" fill="none" xmlns="http://www.w3.org/2000/svg">
<path d="M35.36 2.376V0.375999H34.5149L33.9258 0.982034L35.36 2.376ZM62.336 2.376L63.6509 3.88301L67.6703 0.375999H62.336V2.376ZM38.24 23.4L36.9251 21.893L38.8 25.32L38.24 23.4ZM52.928 25.608L54.0374 23.9439L54.0374 23.9439L52.928 25.608ZM59.552 33.384L57.7424 34.2356L57.7492 34.25L57.7562 34.2643L59.552 33.384ZM61.28 44.52L63.2672 44.7458L63.2685 44.7341L61.28 44.52ZM55.52 58.92L57.0668 60.1879L57.0718 60.1817L57.0768 60.1755L55.52 58.92ZM43.616 67.848L42.8222 66.0123L42.8222 66.0123L43.616 67.848ZM14.336 67.848L13.4306 69.6313L13.4416 69.6369L13.4526 69.6423L14.336 67.848ZM4.832 58.824L3.07833 59.7857L3.08504 59.7977L4.832 58.824ZM2.624 44.52L0.641804 44.2537L0.640771 44.2614L0.639798 44.2691L2.624 44.52ZM7.232 32.904L8.85336 34.075L8.85844 34.0679L8.86347 34.0609L7.232 32.904ZM15.392 22.92L13.9578 21.526L13.9457 21.5385L13.9339 21.5511L15.392 22.92ZM23.264 44.616L25.2382 44.9361L25.2395 44.9281L25.2407 44.9201L23.264 44.616ZM24.608 50.568L23.0463 51.8174L23.0463 51.8174L24.608 50.568ZM30.176 53.064L30.1234 55.0633L30.1247 55.0633L30.176 53.064ZM36.992 50.664L35.7543 49.093L35.7425 49.1023L35.7308 49.1118L36.992 50.664ZM40.736 44.424L38.7618 44.1039L38.7605 44.1119L38.7593 44.1199L40.736 44.424ZM39.296 38.376L40.8519 37.1193L40.8519 37.1193L39.296 38.376ZM33.632 35.784L33.6846 33.7847L33.6833 33.7847L33.632 35.784ZM26.816 38.28L25.5263 36.7514L25.5143 36.7615L25.5024 36.7718L26.816 38.28ZM35.36 4.376H62.336V0.375999H35.36V4.376ZM61.0211 0.868988L36.9251 21.893L39.5549 24.907L63.6509 3.88301L61.0211 0.868988ZM38.8 25.32C40.1337 24.931 41.6071 24.728 43.232 24.728V20.728C41.2729 20.728 39.4183 20.973 37.68 21.48L38.8 25.32ZM43.232 24.728C46.436 24.728 49.2793 25.5792 51.8186 27.2721L54.0374 23.9439C50.8168 21.7968 47.196 20.728 43.232 20.728V24.728ZM51.8186 27.2721C54.3825 28.9813 56.3546 31.2866 57.7424 34.2356L61.3616 32.5324C59.6774 28.9534 57.2335 26.0747 54.0374 23.9439L51.8186 27.2721ZM57.7562 34.2643C59.1659 37.1402 59.7053 40.4635 59.2915 44.3059L63.2685 44.7341C63.7507 40.2564 63.1381 36.1558 61.3478 32.5037L57.7562 34.2643ZM59.2928 44.2942C58.6907 49.5927 56.8988 54.0243 53.9632 57.6645L57.0768 60.1755C60.5412 55.8797 62.5893 50.7113 63.2672 44.7458L59.2928 44.2942ZM53.9732 57.6521C50.98 61.3039 47.2723 64.0879 42.8222 66.0123L44.4098 69.6837C49.4318 67.5121 53.6601 64.3441 57.0668 60.1879L53.9732 57.6521ZM42.8222 66.0123C38.3473 67.9474 33.5626 68.92 28.448 68.92V72.92C34.0854 72.92 39.4127 71.8446 44.4098 69.6837L42.8222 66.0123ZM28.448 68.92C23.4657 68.92 19.0703 67.9495 15.2194 66.0537L13.4526 69.6423C17.9217 71.8425 22.9343 72.92 28.448 72.92V68.92ZM15.2414 66.0647C11.4198 64.1245 8.55243 61.3909 6.57896 57.8503L3.08504 59.7977C5.46357 64.0651 8.93225 67.3475 13.4306 69.6313L15.2414 66.0647ZM6.58563 57.8623C4.65674 54.345 3.94422 50.0223 4.6082 44.7709L0.639798 44.2691C-0.104224 50.1537 0.655261 55.367 3.07838 59.7857L6.58563 57.8623ZM4.6062 44.7863C5.13899 40.8199 6.55333 37.2596 8.85336 34.075L5.61064 31.733C2.91867 35.4604 1.26101 39.6441 0.641804 44.2537L4.6062 44.7863ZM8.86347 34.0609C11.3068 30.6152 13.9689 27.358 16.8501 24.2889L13.9339 21.5511C10.9271 24.754 8.14923 28.1528 5.60053 31.7471L8.86347 34.0609ZM16.8262 24.314L36.7942 3.76996L33.9258 0.982034L13.9578 21.526L16.8262 24.314ZM21.2898 44.2959C20.8323 47.1174 21.3521 49.6996 23.0463 51.8174L26.1697 49.3186C25.304 48.2364 24.9278 46.8506 25.2382 44.9361L21.2898 44.2959ZM23.0463 51.8174C24.7642 53.9648 27.2243 54.987 30.1234 55.0633L30.2286 51.0647C28.2637 51.013 27.0118 50.3712 26.1697 49.3186L23.0463 51.8174ZM30.1247 55.0633C33.1262 55.1403 35.8579 54.1624 38.2532 52.2162L35.7308 49.1118C34.0301 50.4936 32.2178 51.1157 30.2273 51.0647L30.1247 55.0633ZM38.2297 52.235C40.7114 50.2798 42.2464 47.7592 42.7127 44.7281L38.7593 44.1199C38.4576 46.0808 37.4966 47.7202 35.7543 49.093L38.2297 52.235ZM42.7102 44.7441C43.1729 41.8908 42.5987 39.282 40.8519 37.1193L37.7401 39.6327C38.6813 40.798 39.0671 42.2212 38.7618 44.1039L42.7102 44.7441ZM40.8519 37.1193C39.0868 34.9339 36.6124 33.8617 33.6846 33.7847L33.5794 37.7833C35.5156 37.8343 36.8172 38.4901 37.7401 39.6327L40.8519 37.1193ZM33.6833 33.7847C30.6601 33.7071 27.9188 34.7327 25.5263 36.7514L28.1057 39.8086C29.8092 38.3713 31.6119 37.7329 33.5807 37.7833L33.6833 33.7847ZM25.5024 36.7718C23.1783 38.7961 21.7463 41.328 21.2873 44.3119L25.2407 44.9201C25.5497 42.912 26.4857 41.2199 28.1296 39.7882L25.5024 36.7718Z" fill="#0073FF"/>
</svg>

<svg width="68" height="73" fill="none" xmlns="http://www.w3.org/2000/svg"><path d="M35.36 2.376v-2h-.845l-.59.606 1.435 1.394zm26.976 0l1.315 1.507L67.67.376h-5.335v2zM38.24 23.4l-1.315-1.507L38.8 25.32l-.56-1.92zm14.688 2.208l1.11-1.664-1.11 1.664zm6.624 7.776l-1.81.852.007.014.007.014 1.796-.88zM61.28 44.52l1.987.226.002-.012-1.989-.214zm-5.76 14.4l1.547 1.268.005-.006.005-.007-1.557-1.255zm-11.904 8.928l-.794-1.836.794 1.836zm-29.28 0l-.905 1.783.01.006.012.005.883-1.794zm-9.504-9.024l-1.754.962.007.012 1.747-.974zM2.624 44.52l-1.982-.266-.001.007-.001.008 1.984.251zm4.608-11.616l1.621 1.171.005-.007.005-.007-1.631-1.157zm8.16-9.984l-1.434-1.394-.012.012-.012.013 1.458 1.369zm7.872 21.696l1.974.32.002-.008v-.008l-1.976-.304zm1.344 5.952l-1.562 1.25 1.562-1.25zm5.568 2.496l-.053 2h.002l.051-2zm6.816-2.4l-1.238-1.571-.011.01-.012.009 1.261 1.552zm3.744-6.24l-1.974-.32-.002.008v.008l1.976.304zm-1.44-6.048l1.556-1.257-1.556 1.257zm-5.664-2.592l.053-2h-.002l-.051 2zm-6.816 2.496l-1.29-1.529-.012.01-.012.01 1.314 1.509zM35.36 4.376h26.976v-4H35.36v4zM61.021.869L36.925 21.893l2.63 3.014L63.65 3.883 61.02.869zM38.8 25.32c1.334-.389 2.807-.592 4.432-.592v-4c-1.96 0-3.814.245-5.552.752l1.12 3.84zm4.432-.592c3.204 0 6.047.851 8.587 2.544l2.218-3.328c-3.22-2.147-6.841-3.216-10.805-3.216v4zm8.587 2.544c2.563 1.71 4.536 4.015 5.923 6.964l3.62-1.704c-1.685-3.579-4.129-6.457-7.325-8.588l-2.218 3.328zm5.937 6.992c1.41 2.876 1.95 6.2 1.535 10.042l3.978.428c.482-4.478-.13-8.578-1.921-12.23l-3.592 1.76zm1.537 10.03c-.602 5.299-2.394 9.73-5.33 13.37l3.114 2.511c3.464-4.295 5.512-9.464 6.19-15.43l-3.974-.45zm-5.32 13.358c-2.993 3.652-6.7 6.436-11.15 8.36l1.587 3.672c5.022-2.172 9.25-5.34 12.657-9.496l-3.094-2.536zm-11.15 8.36c-4.476 1.935-9.26 2.908-14.375 2.908v4c5.637 0 10.965-1.075 15.962-3.236l-1.588-3.672zM28.447 68.92c-4.982 0-9.378-.97-13.229-2.866l-1.766 3.588c4.469 2.2 9.481 3.278 14.995 3.278v-4zM15.24 66.065c-3.821-1.94-6.689-4.674-8.662-8.215l-3.494 1.948c2.379 4.267 5.847 7.55 10.346 9.833l1.81-3.566zm-8.655-8.203c-1.93-3.517-2.642-7.84-1.978-13.091L.64 44.269c-.744 5.885.015 11.098 2.438 15.517l3.508-1.924zm-1.98-13.076c.533-3.966 1.947-7.526 4.247-10.711L5.61 31.733C2.919 35.46 1.26 39.644.64 44.253l3.965.533zm4.257-10.725a92.066 92.066 0 017.987-9.772l-2.916-2.738A96.066 96.066 0 005.6 31.747l3.262 2.314zm7.963-9.747L36.794 3.77 33.926.982 13.958 21.526l2.868 2.788zm4.464 19.982c-.458 2.821.062 5.404 1.756 7.521l3.124-2.498c-.866-1.083-1.242-2.468-.932-4.383l-3.948-.64zm1.756 7.521c1.718 2.148 4.178 3.17 7.077 3.246l.106-3.998c-1.965-.052-3.217-.694-4.06-1.746l-3.123 2.498zm7.079 3.246c3.001.077 5.733-.9 8.128-2.847l-2.522-3.104c-1.7 1.382-3.513 2.004-5.504 1.953l-.102 3.998zm8.105-2.828c2.481-1.955 4.016-4.476 4.483-7.507l-3.954-.608c-.301 1.96-1.262 3.6-3.005 4.973l2.476 3.142zm4.48-7.49c.463-2.854-.111-5.463-1.858-7.626l-3.112 2.514c.941 1.165 1.327 2.588 1.022 4.47l3.948.641zm-1.858-7.626c-1.765-2.185-4.24-3.257-7.167-3.334l-.106 3.998c1.937.051 3.238.707 4.161 1.85l3.112-2.514zm-7.169-3.334c-3.023-.078-5.764.948-8.157 2.966l2.58 3.058c1.703-1.438 3.506-2.076 5.475-2.026l.102-3.998zm-8.18 2.987c-2.325 2.024-3.757 4.556-4.216 7.54l3.954.608c.309-2.008 1.245-3.7 2.889-5.132l-2.628-3.016z" fill="#0073FF"/></svg>
